symbols/web/wallpaper/materialsymbolsoutlined/wallpaper_wght700_20px.svg

<svg xmlns="http://www.w3.org/2000/svg" height="20" width="20"><path d="M12.917 8.333q-.542 0-.896-.354t-.354-.896q0-.541.354-.895.354-.355.896-.355.541 0 .895.355.355.354.355.895 0 .542-.355.896-.354.354-.895.354Zm-11.125.479V4.5q0-1.146.781-1.927.781-.781 1.927-.781h4.312V4.5H4.5v4.312Zm7.02 9.396H4.5q-1.146 0-1.927-.781-.781-.781-.781-1.927v-4.312H4.5V15.5h4.312ZM15.5 8.812V4.5h-4.312V1.792H15.5q1.146 0 1.927.781.781.781.781 1.927v4.312Zm-4.312 9.396V15.5H15.5v-4.312h2.708V15.5q0 1.146-.781 1.927-.781.781-1.927.781Zm-6.459-4.104 2.813-3.958 1.854 2.479 2.458-3.292 3.438 4.771Z"/></svg>

<svg xmlns="http://www.w3.org/2000/svg" height="20" width="20"><path d="M12.917 8.333Q12.375 8.333 12.021 7.979Q11.667 7.625 11.667 7.083Q11.667 6.542 12.021 6.188Q12.375 5.833 12.917 5.833Q13.458 5.833 13.812 6.188Q14.167 6.542 14.167 7.083Q14.167 7.625 13.812 7.979Q13.458 8.333 12.917 8.333ZM1.792 8.812V4.5Q1.792 3.354 2.573 2.573Q3.354 1.792 4.5 1.792H8.812V4.5H4.5Q4.5 4.5 4.5 4.5Q4.5 4.5 4.5 4.5V8.812ZM8.812 18.208H4.5Q3.354 18.208 2.573 17.427Q1.792 16.646 1.792 15.5V11.188H4.5V15.5Q4.5 15.5 4.5 15.5Q4.5 15.5 4.5 15.5H8.812ZM15.5 8.812V4.5Q15.5 4.5 15.5 4.5Q15.5 4.5 15.5 4.5H11.188V1.792H15.5Q16.646 1.792 17.427 2.573Q18.208 3.354 18.208 4.5V8.812ZM11.188 18.208V15.5H15.5Q15.5 15.5 15.5 15.5Q15.5 15.5 15.5 15.5V11.188H18.208V15.5Q18.208 16.646 17.427 17.427Q16.646 18.208 15.5 18.208ZM4.729 14.104 7.542 10.146 9.396 12.625 11.854 9.333 15.292 14.104Z"/></svg>
